vendor/shopware/storefront/Resources/app/storefront/dist/assets/icon/default/flag.svg

<svg xmlns="http://www.w3.org/2000/svg" width="24" height="24" viewBox="0 0 24 24">
  <path fill="#758CA3" fill-rule="evenodd" d="M5,6.60582393e-16 L18.966922,0 C20.0714915,-1.5494586e-15 20.966922,0.8954305 20.966922,2 C20.966922,2.27085355 20.9119065,2.5388849 20.805212,2.7878386 L19,7 L20.805212,11.2121614 C21.2403233,12.227421 20.7700201,13.4031788 19.7547606,13.8382901 C19.5058069,13.9449845 19.2377755,14 18.966922,14 L6,14 L6,23 C6,23.5522847 5.55228475,24 5,24 C4.44771525,24 4,23.5522847 4,23 L4,1 C4,0.44771525 4.44771525,2.98238268e-16 5,1.48999946e-31 Z M6,2 L6,12 L18.966922,12 L16.8240648,7 L18.966922,2 L6,2 Z"/>
</svg>

<svg xmlns="http://www.w3.org/2000/svg" width="24" height="24" viewBox="0 0 24 24"><path fill="#758CA3" fill-rule="evenodd" d="M5 0h13.967c1.1045 0 2 .8954 2 2a2 2 0 0 1-.1618.7878L19 7l1.8052 4.2122c.4351 1.0152-.0352 2.191-1.0504 2.626a2 2 0 0 1-.7879.1618H6v9c0 .5523-.4477 1-1 1s-1-.4477-1-1V1c0-.5523.4477-1 1-1zm1 2v10h12.967l-2.143-5 2.143-5H6z"/></svg>
